X:336
T:House of New, The
R:Strathspey
C:William Marshall
B:The Athole Collection
M:C|
L:1/8
K:C
E/D/|C<c c2 E<c c2|G<c c2 B>dd>f|e<c c2 B/c/d/B/ cG|AF E/F/G/F/ ECC:|
e/f/|g<ca<c g<c e2|g<ca<c Bd de/f/|g<ca<c g<cc'<c|f/d//d/c/ B/c/d/B/ c<C Ce/f/|
g<ca<c g<c e2|g<ca<c B<d d>f|e/f/g/a/ g2 f/e/d/c/ f2|c/B/A/G/ A/B/c/G/ ECC||

